X: 395
T: Bir Nevcivansın
C: Rahmi Bey
O: Turkey
F: http://compmusic.upf.edu/node/140
N: hisarbuselik--sarki--turkaksagi--bir_nevcivansin--rahmi_bey
N: makam= hisarbuselik
N: form= sarki
N: usul= turkaksagi = 5/8
M: 5/8
L: 1/16
K: C _1/4B   
Q: 1/4=126
%%MIDI tuningsystem comma53
e4 e4 e2 | ^g^1/4f2ef3/2e/ ^ded2  | e2{^g}^1/4fe a2g2 a2 | \
w:  Bir  nev ci  |  vân *  *  sın   |  şûh_ *  *  *  i  *  ci  | 
^gf fee4z2  | 
w:  hân *  *  *  sın    | 
e4 e4 ed | de fgef decd  | dc2_2/4B (3cBAA2 G2 | 
w:  Rûh_ i  re  |  vân *  *  *  sın   |  sî *  *  nem *  *  *  de   | 
e3/2d/ cde4z2  | d2{e}dc d4 a2 | ag fed2 c=BA2  | \
w:  cân *  *  *  sın    |  Can *  *  *  da  ni  |  hân *  *  *  sın   | 
^GA=Bc d2cB A2 | 
w:  nûr_ *  *  *  i  *  *  a  | 
c3/2=B/ A^GA4z2  | e4 e4 e2 | ^g^1/4f2ef3/2e/ ^ded2  | \
w:  yân *  *  *  sın    |  Bir  nev ci  |  vân *  *  sın   | 
e2{^g}^1/4fe a2g2 a2 | 
w:  şûh_ *  *  *  i  *  ci  | 
^gf fee4z2  | e4 e4 ed | de fgef decd  | \
w:  hân *  *  *  sın    |  Rûh_ i  re  |  vân *  *  *  sın   | 
dc2_2/4B (3cBAA2 G2 | 
w:  sî *  *  nem *  *  *  de   | 
e3/2d/ cde4z2  | d2{e}dc d4 a2 | ag fed2 c=BA2  | \
w:  cân *  *  *  sın    |  Can *  *  *  da  ni  |  hân *  *  *  sın   | 
^GA=Bc d2cB A2 | 
w:  nûr_ *  *  *  i  *  *  a  | 
c3/2=B/ A^GA4z2  | a4 a4 =b2 | c'3/2=b/ a^ga4z2  | \
w:  yân *  *  *  sın    |  Gös ter  ce  |  mâ *  *  *  lin   | 
^gagf ga_7/8b2 ba | 
w:  sen  *  *  *  mihr_ *  *  i   | 
a^g feag fed2  | d2^cd e4 de | f2 ef^g2 a2{=b}=g^9/8f  | 
w:  ân *  *  *  sın    |  Üf *  *  tâ de  |  gâ *  *  nın   | 
e2d^3/4c ^9/8fefe ed | (3ed^2/4c c=BB4z2  | \
w:  gün  *  *  doğ *  *  *  du   |  san *  *  *  *  sın    | 
a2a=b b4 b2 | 
w:  Setr_ *  *  et me   | 
d'c'2=b{c'}b2 a2g2  | a=bag aba2 bc' | \
w:  hüs *  *  *  nün   |  dil  *  *  *  sey *  *  re   | 
=ba gab4z2  | 
w:  kan *  *  *  sın    | 
a3g g2^2/4f2 {g}fe | e2 ^3/4f2g2 a2_3/4b^3/4c'  | \
w:  Uş *  şâ *  *  ka   |  dâ *  im   | 
a2g2 f2e2 d2 | g2 fe{f}e4z2  | 
w:  sen  *  mih *  ri  |  bân *  *  *  sın    | 
e4 e4 ed | de fgef decd  | dc2_2/4B (3cBAA2 G2 | 
w:  Bu  hüsn_ ü   |  ân *  *  *  la   |  ta *  *  ze  *  *  *  fi  | 
e3/2d/ cde4z2  | d2{e}dc d4 a2 | ag fed2 c=BA2  | \
w:  dan *  *  *  sın    |  Reşk_ *  *  *  i  ci  |  nân *  *  *  sın   | 
^GA=Bc d2cB A2 | 
w:  ez *  *  *  hâ *  *  ra   | 
c3/2=B/ A^GA4z2  | e4 e4 ed | de fgef decd  | \
w:  şân *  *  *  sın    |  Bu  hüsn_ ü   |  ân *  *  *  la   | 
dc2_2/4B (3cBAA2 G2 | 
w:  ta *  *  ze  *  *  *  fi  | 
e3/2d/ cde4z2  | d2{e}dc d4 a2 | ag fed2 c=BA2  | \
w:  dan *  *  *  sın    |  Reşk_ *  *  *  i  ci  |  nân *  *  *  sın   | 
^GA=Bc d2cB A2 | 
w:  ez *  *  *  hâ *  *  ra   | 
c3/2=B/ A^GA4z2  | |


